latex_in_markdown/.watch-latex-md-images/76d2467ba930d606493c415323b35139.svg

<ns0:svg xmlns:ns0="http://www.w3.org/2000/svg" xmlns:ns1="http://www.w3.org/1999/xlink" height="14.5495pt" version="1.1" viewBox="23.686 60.1703 78.2818 14.5495" width="78.2818pt" watch_lated_md:baseline="-8.881784197001252e-15" xmlns:watch_lated_md="https://github.com/Quansight/pearu-sandbox/latex_in_markdown/">
<ns0:defs>
<ns0:path d="m7.87846 -2.74969c0.203238 0 0.418431 0 0.418431 -0.239103s-0.215193 -0.239103 -0.418431 -0.239103h-6.46775c-0.203238 0 -0.418431 0 -0.418431 0.239103s0.215193 0.239103 0.418431 0.239103h6.46775z" id="g0-0" />
<ns0:path d="m2.03238 -1.32702c-0.418431 0.705355 -0.824907 0.944458 -1.39875 0.980324c-0.131507 0.0119552 -0.227148 0.0119552 -0.227148 0.227148c0 0.071731 0.0597758 0.119552 0.143462 0.119552c0.215193 0 0.753176 -0.0239103 0.968369 -0.0239103c0.3467 0 0.729265 0.0239103 1.06401 0.0239103c0.071731 0 0.215193 0 0.215193 -0.227148c0 -0.107597 -0.0956413 -0.119552 -0.167372 -0.119552c-0.274969 -0.0239103 -0.502117 -0.119552 -0.502117 -0.406476c0 -0.167372 0.071731 -0.298879 0.227148 -0.561893l0.908593 -1.50635h3.04857c0.0119552 0.107597 0.0119552 0.203238 0.0239103 0.310834c0.0358655 0.310834 0.179328 1.55417 0.179328 1.78132c0 0.358655 -0.609714 0.382565 -0.800996 0.382565c-0.131507 0 -0.263014 0 -0.263014 0.215193c0 0.131507 0.107597 0.131507 0.179328 0.131507c0.203238 0 0.442341 -0.0239103 0.645579 -0.0239103h0.681445c0.729265 0 1.25529 0.0239103 1.26725 0.0239103c0.0836862 0 0.215193 0 0.215193 -0.227148c0 -0.119552 -0.107597 -0.119552 -0.286924 -0.119552c-0.657534 0 -0.669489 -0.107597 -0.705355 -0.466252l-0.729265 -7.46002c-0.0239103 -0.239103 -0.071731 -0.263014 -0.203238 -0.263014c-0.119552 0 -0.191283 0.0239103 -0.298879 0.203238l-4.18431 7.00573zm1.43462 -1.8411l2.40299 -4.01694l0.406476 4.01694h-2.80946z" id="g1-65" />
<ns0:path d="m2.13998 -2.7736c0.32279 0 1.13574 -0.0239103 1.70959 -0.239103c0.908593 -0.3467 0.992279 -1.0401 0.992279 -1.25529c0 -0.526027 -0.454296 -1.00423 -1.24334 -1.00423c-1.25529 0 -3.06052 1.13574 -3.06052 3.26376c0 1.25529 0.71731 2.12802 1.80523 2.12802c1.6259 0 2.65405 -1.26725 2.65405 -1.42267c0 -0.071731 -0.071731 -0.131507 -0.119552 -0.131507c-0.0358655 0 -0.0478207 0.0119552 -0.155417 0.119552c-0.765131 1.01619 -1.90087 1.19552 -2.35517 1.19552c-0.681445 0 -1.0401 -0.537983 -1.0401 -1.42267c0 -0.167372 0 -0.466252 0.179328 -1.23138h0.633624zm-0.573848 -0.239103c0.514072 -1.8411 1.64981 -2.02042 2.03238 -2.02042c0.526027 0 0.884682 0.310834 0.884682 0.765131c0 1.25529 -1.91283 1.25529 -2.41494 1.25529h-0.502117z" id="g1-101" />
<ns0:path d="m3.3594 -7.99801c0.0119552 -0.0478207 0.0358655 -0.119552 0.0358655 -0.179328c0 -0.119552 -0.119552 -0.119552 -0.143462 -0.119552c-0.0119552 0 -0.442341 0.0358655 -0.657534 0.0597758c-0.203238 0.0119552 -0.382565 0.0358655 -0.597758 0.0478207c-0.286924 0.0239103 -0.37061 0.0358655 -0.37061 0.251059c0 0.119552 0.119552 0.119552 0.239103 0.119552c0.609714 0 0.609714 0.107597 0.609714 0.227148c0 0.0478207 0 0.071731 -0.0597758 0.286924l-1.70959 6.83836c-0.0478207 0.179328 -0.0478207 0.203238 -0.0478207 0.274969c0 0.263014 0.203238 0.310834 0.32279 0.310834c0.334745 0 0.406476 -0.263014 0.502117 -0.633624l0.561893 -2.23562c0.860772 0.0956413 1.37484 0.454296 1.37484 1.02814c0 0.071731 0 0.119552 -0.0358655 0.298879c-0.0478207 0.179328 -0.0478207 0.32279 -0.0478207 0.382565c0 0.6934 0.454296 1.15965 1.06401 1.15965c0.549938 0 0.836862 -0.502117 0.932503 -0.669489c0.251059 -0.442341 0.406476 -1.11183 0.406476 -1.15965c0 -0.0597758 -0.0478207 -0.107597 -0.119552 -0.107597c-0.107597 0 -0.119552 0.0478207 -0.167372 0.239103c-0.167372 0.621669 -0.418431 1.45853 -1.02814 1.45853c-0.239103 0 -0.394521 -0.119552 -0.394521 -0.573848c0 -0.227148 0.0478207 -0.490162 0.0956413 -0.669489c0.0478207 -0.215193 0.0478207 -0.227148 0.0478207 -0.37061c0 -0.705355 -0.633624 -1.09988 -1.7335 -1.24334c0.430386 -0.263014 0.860772 -0.729265 1.02814 -0.908593c0.681445 -0.765131 1.1477 -1.1477 1.69763 -1.1477c0.274969 0 0.3467 0.071731 0.430386 0.143462c-0.442341 0.0478207 -0.609714 0.358655 -0.609714 0.597758c0 0.286924 0.227148 0.382565 0.394521 0.382565c0.32279 0 0.609714 -0.274969 0.609714 -0.657534c0 -0.3467 -0.274969 -0.705355 -0.812951 -0.705355c-0.657534 0 -1.19552 0.466252 -2.04433 1.42267c-0.119552 0.143462 -0.561893 0.597758 -1.00423 0.765131l1.23138 -4.91357z" id="g1-107" />
<ns0:path d="m2.85776 -0.705833c0 -0.430386 -0.344309 -0.705833 -0.705833 -0.705833c-0.344309 0 -0.705833 0.275447 -0.705833 0.705833s0.344309 0.705833 0.705833 0.705833c0.344309 0 0.705833 -0.275447 0.705833 -0.705833z" id="g3-46" />
<ns0:path d="m4.57931 -11.0007c0 -0.361524 -0.0172154 -0.37874 -0.258232 -0.37874c-0.671402 0.809126 -1.68711 1.06736 -2.65118 1.10179c-0.0516463 0 -0.137724 0 -0.154939 0.0344309s-0.0172154 0.0688618 -0.0172154 0.430386c0.533679 0 1.42888 -0.103293 2.1175 -0.516463v9.07254c0 0.60254 -0.0344309 0.809126 -1.51496 0.809126h-0.516463v0.447601c0.826341 -0.0172154 1.68711 -0.0344309 2.51345 -0.0344309s1.68711 0.0172154 2.51345 0.0344309v-0.447601h-0.516463c-1.48053 0 -1.51496 -0.18937 -1.51496 -0.809126v-9.74394z" id="g3-49" />
<ns0:path d="m1.82484 -5.93933c0 -4.11449 1.92813 -5.04412 3.04713 -5.04412c0.361524 0 1.23951 0.0688618 1.58382 0.740264c-0.275447 0 -0.79191 0 -0.79191 0.60254c0 0.464817 0.37874 0.619756 0.619756 0.619756c0.154939 0 0.619756 -0.0688618 0.619756 -0.654187c0 -1.08457 -0.860772 -1.70433 -2.04864 -1.70433c-2.04864 0 -4.20057 2.13471 -4.20057 5.93933c0 4.6826 1.94534 5.71553 3.32258 5.71553c1.6699 0 3.25372 -1.49774 3.25372 -3.80461c0 -2.15193 -1.39445 -3.71854 -3.15043 -3.71854c-1.05014 0 -1.82484 0.688618 -2.25522 1.8937v-0.585325zm2.15193 5.8016c-2.1175 0 -2.1175 -3.16764 -2.1175 -3.80461c0 -1.23951 0.585325 -3.02992 2.18636 -3.02992c0.292662 0 1.13622 0 1.70433 1.18787c0.309878 0.671402 0.309878 1.37724 0.309878 2.23801c0 0.929634 0 1.61825 -0.361524 2.30687c-0.37874 0.705833 -0.929634 1.10179 -1.72154 1.10179z" id="g3-54" />
<ns0:path d="m11.0695 -5.52616c0.258232 0 0.516463 0 0.516463 -0.292662c0 -0.309878 -0.292662 -0.309878 -0.585325 -0.309878h-9.62343c-0.292662 0 -0.585325 0 -0.585325 0.309878c0 0.292662 0.258232 0.292662 0.516463 0.292662h9.76115zm-0.0688618 3.06435c0.292662 0 0.585325 0 0.585325 -0.309878c0 -0.292662 -0.258232 -0.292662 -0.516463 -0.292662h-9.76115c-0.258232 0 -0.516463 0 -0.516463 0.292662c0 0.309878 0.292662 0.309878 0.585325 0.309878h9.62343z" id="g3-61" />
<ns0:use id="g2-65" transform="scale(1.44)" ns1:href="#g1-65" />
<ns0:use id="g2-101" transform="scale(1.44)" ns1:href="#g1-101" />
</ns0:defs>
<ns0:g id="page1">
<ns0:use x="27.9837" ns1:href="#g3-49" y="74.7198" />
<ns0:use x="35.879" ns1:href="#g3-54" y="74.7198" />
<ns0:use x="48.5563" ns1:href="#g3-61" y="74.7198" />
<ns0:use x="65.7307" ns1:href="#g2-65" y="74.7198" />
<ns0:use x="78.3672" ns1:href="#g2-101" y="74.7198" />
<ns0:use x="86.1798" ns1:href="#g0-0" y="68.4725" />
<ns0:use x="95.4783" ns1:href="#g1-107" y="68.4725" />
</ns0:g>
</ns0:svg>

<ns0:svg xmlns:ns0="http://www.w3.org/2000/svg" xmlns:ns1="http://www.w3.org/1999/xlink" height="14.5495pt" version="1.1" viewBox="23.686 60.1703 78.2818 14.5495" width="78.2818pt" watch_lated_md:baseline="-8.881784197001252e-15" xmlns:watch_lated_md="https://github.com/Quansight/pearu-sandbox/latex_in_markdown/">
<ns0:defs>
<ns0:path d="M7.87846 -2.74969C8.08169 -2.74969 8.29689 -2.74969 8.29689 -2.98879S8.08169 -3.2279 7.87846 -3.2279H1.41071C1.20747 -3.2279 0.992279 -3.2279 0.992279 -2.98879S1.20747 -2.74969 1.41071 -2.74969H7.87846Z" id="g0-0" />
<ns0:path d="M2.03238 -1.32702C1.61395 -0.621669 1.20747 -0.382565 0.633624 -0.3467C0.502117 -0.334745 0.406476 -0.334745 0.406476 -0.119552C0.406476 -0.0478207 0.466252 0 0.549938 0C0.765131 0 1.30311 -0.0239103 1.51831 -0.0239103C1.86501 -0.0239103 2.24757 0 2.58232 0C2.65405 0 2.79751 0 2.79751 -0.227148C2.79751 -0.334745 2.70187 -0.3467 2.63014 -0.3467C2.35517 -0.37061 2.12802 -0.466252 2.12802 -0.753176C2.12802 -0.920548 2.19975 -1.05205 2.35517 -1.31507L3.26376 -2.82142H6.31233C6.32428 -2.71382 6.32428 -2.61818 6.33624 -2.51059C6.3721 -2.19975 6.51557 -0.956413 6.51557 -0.729265C6.51557 -0.37061 5.90585 -0.3467 5.71457 -0.3467C5.58306 -0.3467 5.45156 -0.3467 5.45156 -0.131507C5.45156 0 5.55915 0 5.63088 0C5.83412 0 6.07323 -0.0239103 6.27646 -0.0239103H6.95791C7.68717 -0.0239103 8.2132 0 8.22516 0C8.30884 0 8.44035 0 8.44035 -0.227148C8.44035 -0.3467 8.33275 -0.3467 8.15342 -0.3467C7.49589 -0.3467 7.48394 -0.454296 7.44807 -0.812951L6.7188 -8.27298C6.69489 -8.51208 6.64707 -8.53599 6.51557 -8.53599C6.39601 -8.53599 6.32428 -8.51208 6.21669 -8.33275L2.03238 -1.32702ZM3.467 -3.16812L5.86999 -7.18506L6.27646 -3.16812H3.467Z" id="g1-65" />
<ns0:path d="M2.13998 -2.7736C2.46276 -2.7736 3.27572 -2.79751 3.84956 -3.0127C4.75816 -3.3594 4.84184 -4.0528 4.84184 -4.268C4.84184 -4.79402 4.38755 -5.27223 3.59851 -5.27223C2.34321 -5.27223 0.537983 -4.13649 0.537983 -2.00847C0.537983 -0.753176 1.25529 0.119552 2.34321 0.119552C3.96912 0.119552 4.99726 -1.1477 4.99726 -1.30311C4.99726 -1.37484 4.92553 -1.43462 4.87771 -1.43462C4.84184 -1.43462 4.82989 -1.42267 4.72229 -1.31507C3.95716 -0.298879 2.82142 -0.119552 2.36712 -0.119552C1.68568 -0.119552 1.32702 -0.657534 1.32702 -1.54222C1.32702 -1.70959 1.32702 -2.00847 1.50635 -2.7736H2.13998ZM1.56613 -3.0127C2.0802 -4.8538 3.21594 -5.03313 3.59851 -5.03313C4.12453 -5.03313 4.48319 -4.72229 4.48319 -4.268C4.48319 -3.0127 2.57036 -3.0127 2.06824 -3.0127H1.56613Z" id="g1-101" />
<ns0:path d="M3.3594 -7.99801C3.37136 -8.04583 3.39527 -8.11756 3.39527 -8.17733C3.39527 -8.29689 3.27572 -8.29689 3.25181 -8.29689C3.23985 -8.29689 2.80946 -8.26102 2.59427 -8.23711C2.39103 -8.22516 2.21171 -8.20125 1.99651 -8.18929C1.70959 -8.16538 1.6259 -8.15342 1.6259 -7.93823C1.6259 -7.81868 1.74545 -7.81868 1.86501 -7.81868C2.47472 -7.81868 2.47472 -7.71108 2.47472 -7.59153C2.47472 -7.54371 2.47472 -7.5198 2.41494 -7.30461L0.705355 -0.466252C0.657534 -0.286924 0.657534 -0.263014 0.657534 -0.191283C0.657534 0.071731 0.860772 0.119552 0.980324 0.119552C1.31507 0.119552 1.3868 -0.143462 1.48244 -0.514072L2.04433 -2.74969C2.90511 -2.65405 3.41918 -2.29539 3.41918 -1.72154C3.41918 -1.64981 3.41918 -1.60199 3.38331 -1.42267C3.33549 -1.24334 3.33549 -1.09988 3.33549 -1.0401C3.33549 -0.3467 3.78979 0.119552 4.3995 0.119552C4.94944 0.119552 5.23636 -0.382565 5.332 -0.549938C5.58306 -0.992279 5.73848 -1.66177 5.73848 -1.70959C5.73848 -1.76936 5.69066 -1.81719 5.61893 -1.81719C5.51133 -1.81719 5.49938 -1.76936 5.45156 -1.57808C5.28418 -0.956413 5.03313 -0.119552 4.42341 -0.119552C4.18431 -0.119552 4.02889 -0.239103 4.02889 -0.6934C4.02889 -0.920548 4.07671 -1.18356 4.12453 -1.36289C4.17235 -1.57808 4.17235 -1.59004 4.17235 -1.7335C4.17235 -2.43885 3.53873 -2.83337 2.43885 -2.97684C2.86924 -3.23985 3.29963 -3.7061 3.467 -3.88543C4.14844 -4.65056 4.61469 -5.03313 5.16463 -5.03313C5.4396 -5.03313 5.51133 -4.96139 5.59502 -4.88966C5.15268 -4.84184 4.98531 -4.53101 4.98531 -4.29191C4.98531 -4.00498 5.21245 -3.90934 5.37983 -3.90934C5.70262 -3.90934 5.98954 -4.18431 5.98954 -4.56687C5.98954 -4.91357 5.71457 -5.27223 5.17659 -5.27223C4.51905 -5.27223 3.98107 -4.80598 3.13225 -3.84956C3.0127 -3.7061 2.57036 -3.25181 2.12802 -3.08443L3.3594 -7.99801Z" id="g1-107" />
<ns0:path d="M2.85776 -0.705833C2.85776 -1.13622 2.51345 -1.41167 2.15193 -1.41167C1.80762 -1.41167 1.4461 -1.13622 1.4461 -0.705833S1.79041 0 2.15193 0C2.49624 0 2.85776 -0.275447 2.85776 -0.705833Z" id="g3-46" />
<ns0:path d="M4.57931 -11.0007C4.57931 -11.3622 4.56209 -11.3794 4.32108 -11.3794C3.64967 -10.5703 2.63396 -10.312 1.6699 -10.2776C1.61825 -10.2776 1.53217 -10.2776 1.51496 -10.2432S1.49774 -10.1743 1.49774 -9.8128C2.03142 -9.8128 2.92662 -9.91609 3.61524 -10.3293V-1.25673C3.61524 -0.654187 3.58081 -0.447601 2.10028 -0.447601H1.58382V0C2.41016 -0.0172154 3.27093 -0.0344309 4.09727 -0.0344309S5.78439 -0.0172154 6.61073 0V-0.447601H6.09427C4.61374 -0.447601 4.57931 -0.636971 4.57931 -1.25673V-11.0007Z" id="g3-49" />
<ns0:path d="M1.82484 -5.93933C1.82484 -10.0538 3.75297 -10.9835 4.87197 -10.9835C5.23349 -10.9835 6.11148 -10.9146 6.45579 -10.2432C6.18034 -10.2432 5.66388 -10.2432 5.66388 -9.64065C5.66388 -9.17583 6.04262 -9.02089 6.28364 -9.02089C6.43857 -9.02089 6.90339 -9.08975 6.90339 -9.67508C6.90339 -10.7597 6.04262 -11.3794 4.85475 -11.3794C2.80612 -11.3794 0.654187 -9.24469 0.654187 -5.44008C0.654187 -0.757479 2.59953 0.275447 3.97677 0.275447C5.64666 0.275447 7.23049 -1.2223 7.23049 -3.52917C7.23049 -5.6811 5.83603 -7.2477 4.08006 -7.2477C3.02992 -7.2477 2.25522 -6.55908 1.82484 -5.354V-5.93933ZM3.97677 -0.137724C1.85927 -0.137724 1.85927 -3.30536 1.85927 -3.94234C1.85927 -5.18185 2.44459 -6.97225 4.04563 -6.97225C4.33829 -6.97225 5.18185 -6.97225 5.74996 -5.78439C6.05984 -5.11299 6.05984 -4.40715 6.05984 -3.54638C6.05984 -2.61675 6.05984 -1.92813 5.69831 -1.23951C5.31957 -0.533679 4.76868 -0.137724 3.97677 -0.137724Z" id="g3-54" />
<ns0:path d="M11.0695 -5.52616C11.3278 -5.52616 11.586 -5.52616 11.586 -5.81882C11.586 -6.1287 11.2933 -6.1287 11.0007 -6.1287H1.37724C1.08457 -6.1287 0.79191 -6.1287 0.79191 -5.81882C0.79191 -5.52616 1.05014 -5.52616 1.30837 -5.52616H11.0695ZM11.0007 -2.46181C11.2933 -2.46181 11.586 -2.46181 11.586 -2.77169C11.586 -3.06435 11.3278 -3.06435 11.0695 -3.06435H1.30837C1.05014 -3.06435 0.79191 -3.06435 0.79191 -2.77169C0.79191 -2.46181 1.08457 -2.46181 1.37724 -2.46181H11.0007Z" id="g3-61" />
<ns0:use id="g2-65" transform="scale(1.44)" ns1:href="#g1-65" />
<ns0:use id="g2-101" transform="scale(1.44)" ns1:href="#g1-101" />
</ns0:defs>
<ns0:g id="page1">
<ns0:use x="27.9837" ns1:href="#g3-49" y="74.7198" />
<ns0:use x="35.879" ns1:href="#g3-54" y="74.7198" />
<ns0:use x="48.5563" ns1:href="#g3-61" y="74.7198" />
<ns0:use x="65.7307" ns1:href="#g2-65" y="74.7198" />
<ns0:use x="78.3672" ns1:href="#g2-101" y="74.7198" />
<ns0:use x="86.1798" ns1:href="#g0-0" y="68.4725" />
<ns0:use x="95.4783" ns1:href="#g1-107" y="68.4725" />
</ns0:g>
</ns0:svg>
